en/template-builder/_images/templates/text.svg

<svg width="121" height="121" viewBox="0 0 121 121" fill="none" xmlns="http://www.w3.org/2000/svg">
<path fill-rule="evenodd" clip-rule="evenodd" d="M96.009 24.041L96.009 96.041C96.009 98.241 94.2171 100.041 92.0144 100.041L9.99589 100.041C7.79322 100.041 6.00118 98.241 6.00118 96.041L6.00119 24.041C6.00119 21.841 7.79323 20.041 9.9959 20.041L92.0144 20.041C94.2171 20.041 96.009 21.841 96.009 24.041Z" fill="url(#paint0_linear_598_1496)"/>
<path fill-rule="evenodd" clip-rule="evenodd" d="M107.647 32.5344L72.0039 68.041V78.041H82.0039L117.503 42.4011" stroke="#0055D9" stroke-width="2" stroke-miterlimit="79.8403" stroke-linecap="round" stroke-linejoin="round"/>
<path d="M107.504 52.041L98.0039 42.541" stroke="#0055D9" stroke-width="2" stroke-miterlimit="79.8403" stroke-linecap="round" stroke-linejoin="round"/>
<path d="M117.004 42L108.004 33" stroke="#0055D9" stroke-width="2" stroke-miterlimit="79.8403" stroke-linecap="round" stroke-linejoin="round"/>
<path d="M26.0039 42.041H78.7424" stroke="#0055D9" stroke-width="2" stroke-miterlimit="79.8403" stroke-linecap="round" stroke-linejoin="round"/>
<path d="M26.0039 60.041H68.5452" stroke="#0055D9" stroke-width="2" stroke-miterlimit="79.8403" stroke-linecap="round" stroke-linejoin="round"/>
<path d="M26.0039 78.041H61.5411" stroke="#0055D9" stroke-width="2" stroke-miterlimit="79.8403" stroke-linecap="round" stroke-linejoin="round"/>
<defs>
<linearGradient id="paint0_linear_598_1496" x1="51.0159" y1="9.04102" x2="51.0159" y2="121.541" gradientUnits="userSpaceOnUse">
<stop offset="0.02" stop-color="#0064FF"/>
<stop offset="0.06" stop-color="#005FFF" stop-opacity="0.86"/>
<stop offset="0.11" stop-color="#005BFF" stop-opacity="0.72"/>
<stop offset="0.17" stop-color="#0057FF" stop-opacity="0.59"/>
<stop offset="0.23" stop-color="#0053FF" stop-opacity="0.48"/>
<stop offset="0.3" stop-color="#0051FF" stop-opacity="0.4"/>
<stop offset="0.38" stop-color="#004FFF" stop-opacity="0.33"/>
<stop offset="0.48" stop-color="#004DFF" stop-opacity="0.28"/>
<stop offset="0.61" stop-color="#004CFF" stop-opacity="0.26"/>
<stop offset="1" stop-color="#004CFF" stop-opacity="0.25"/>
</linearGradient>
</defs>
</svg>

<svg xmlns="http://www.w3.org/2000/svg" width="121" height="121" fill="none"><path fill="url(#a)" fill-rule="evenodd" d="M96.009 24.041v72c0 2.2-1.792 4-3.995 4H9.996a4.006 4.006 0 0 1-3.995-4v-72c0-2.2 1.792-4 3.995-4h82.018c2.203 0 3.995 1.8 3.995 4Z" clip-rule="evenodd"/><path stroke="#0055D9" stroke-linecap="round" stroke-linejoin="round" stroke-miterlimit="79.84" stroke-width="2" d="M107.647 32.534 72.004 68.041v10h10l35.499-35.64" clip-rule="evenodd"/><path stroke="#0055D9" stroke-linecap="round" stroke-linejoin="round" stroke-miterlimit="79.84" stroke-width="2" d="m107.504 52.041-9.5-9.5M117.004 42l-9-9M26.004 42.041h52.738M26.004 60.041h42.541M26.004 78.041H61.54"/><defs><linearGradient id="a" x1="51.016" x2="51.016" y1="9.041" y2="121.541" gradientUnits="userSpaceOnUse"><stop offset=".02" stop-color="#0064FF"/><stop offset=".06" stop-color="#005FFF" stop-opacity=".86"/><stop offset=".11" stop-color="#005BFF" stop-opacity=".72"/><stop offset=".17" stop-color="#0057FF" stop-opacity=".59"/><stop offset=".23" stop-color="#0053FF" stop-opacity=".48"/><stop offset=".3" stop-color="#0051FF" stop-opacity=".4"/><stop offset=".38" stop-color="#004FFF" stop-opacity=".33"/><stop offset=".48" stop-color="#004DFF" stop-opacity=".28"/><stop offset=".61" stop-color="#004CFF" stop-opacity=".26"/><stop offset="1" stop-color="#004CFF" stop-opacity=".25"/></linearGradient></defs></svg>
